X:054121714
T:Saria's Song
C:Koji Kondo
Q:1/4=140
L:1/4
M:C
K:D
G/2B/2 c G/2B/2 c|G/2B/2c/2f/2 e c/2d/2|c/2A/2 FF3/2 E/2|F/2A/2 F3|G/2B/2 c G/2B/2 c|G/2B/2c/2f/2 e c/2d/2|f/2c/2 AA3/2 c/2|A/2E/2 F3|E/2F/2 G A/2B/2 c|d/2c/2 F3|G/2A/2 B c/2d/2 e|f/2g/2 a3|E/2F/2 G A/2B/2 c|d/2c/2 F3|G/2F/2B/2A/2 c/2B/2d/2c/2|e/2d/2f/2e/2 g/2f/2 c/4d/2B/4| c4|
